!!!OTL: Liebestreu.
!!!OTL-incipit: ES WAREN ZWEI KOENIGSKINDER
!!!ARE: Europa, Mitteleuropa, Deutschland, Rhein
!!!SCT: Z1011
!!!TXL: @@DE
!!!YEM: Copyright 1995, estate of Helmut Schaffrath.
**kern	**text
*ICvox	*
*M3/8	*
*k[]	*
*a:	*
!LO:TX:a:t=(Cleve und Kaiſerswerder ſollen die Orte ſeyn, worauf die Sage Beʒug hat.)	!
{8cc	Es
=1	=1
8a	wa-
8a	-ren
8b/	ʒwei
=2	=2
(8ccL	Kö-
8bJ)	.
8cc	-nigs-
=3	=3
(4a	-kin-
8cc)	.
=4	=4
4b}	-der,
{8cc	ſie
=5	=5
8a	hat-
8a	-ten
8b	ein-
=6	=6
8dd	-an-
8cc	-der
8b	ſo
=7	=7
(4a	lieb,
8g#	.
=8	=8
4a)}	.
{(16aL	ſie
16bJ)	.
=9	=9
8cc	konn-
8cc	-ten
8cc	ʒu-
=10	=10
8dd	-ſam-
8dd	-men
8dd	nicht
=11	=11
4.ee	kom-
=12	=12
4dd}	-men,
{16eeL	das
16ddJ	.
=13	=13
8cc	Waſ-
8b	-ſer
8a	war
=14	=14
8g#L	viel
8aJ	.
8b/	ʒu
=15	=15
4a}	tief.
==	==
!!!AGN: Romanze, Ballade, Tod, Sage
!!!ONB: ESAC (Essen Associative Code) Database: ZUCCAL
!!!AMT: simple triple
!!!AIN: vox
!!!EED: Helmut Schaffrath
!!!EEV: 1.0
!!!GTL: I. Volks- Leuschen.
!!!URL-scan: https://www.digitale-sammlungen.de/de/view/bsb11160573?page=38
!!!ENC: Anna Maria Matuszewska
!!!EEV: 2025/01/31
*-	*-
